X: 34232
T: Reel Traditionelle
R: reel
M: 4/4
K: Gmajor
B,DDB, DDB,D|CEEC E2 (3BcB|A2AA dAFD|GBAG FEDC|
B,DDB, DDB,D|CEEC E2 (3BcB|A2AA dAFD|1 GBAF G2DC:|2 GBAF GABc||
dggf g2gg|fdAB c3c|d2 (3ddd cAFD|GABc d2Bc|
dg2dg2gg|fdAB c3c|d2 (3ddd cAFD|1 GBAF GABc:|2 GBAF GEDC||

